X:1
T:We Three (My Echo, My Shadow and Me)
T:We Three
T:Dick Robertson, Nelson Cogane and Sammy Mysels
C:Dick Robertson, Nelson Cogane, Sammy Mysels
Z:All Rights Reserved
L:1/8
M:4/4
K:F
V:1 treble nm="Electric Piano"
%%MIDI program 4
V:1
 z4 z2"C" d2 |:"F" c4- cAFC |"Db7" _D8 |"F" CDFA c2 =B2 |"Eb" _B6"D7" A2 |"G" dd- d4 D2 | %6
w: We|three * we're all a-|lone|liv- ing in a mem- o-|ry my|ech- o * my|
"C" AA- A4 E2 |"F" D8 | z4 z2"C7" d2 |"F" c4- cAFC |"Db7" _D8 |"F" C=DFA c2 =B2 |"Eb" _B6"D7" A2 | %13
w: shad- ow * and|me|we|three * we're not a|crowd|we're not e- ven com- pa-|ny my|
"G" dd- d4 D2 |"C" AA- A4"Bb7" D2 |"F" F8- | F6 F2 |"Cm7" G2 AB"F7" A2 GF |"Cm7" G2 AB"F7" A2 GF | %19
w: ech- o * my|shad- ow * and|me|* what|good is the moon- light the|sil- ver- y moon- light that|
"Bb" G3 A"A7" G4- | G6 G2 |"Dm7" A2 Bc"G7" B2 AG |"Dm7" A2 Bc"G7" B2 AG |"Gm7" d2 dd"Eb" _B2 B2 | %24
w: shines a- bove?|* I|walk with my shad- ow I|talk with my ech- o but|where is the one I|
"Db" G6 d2 |"F" c4- cAFC |"Db7" _D8 |"F" C=DFA"F" c2 =B2 |"Eb" _B6"D7" A2 |"G" dd- d4 D2 | %30
w: love? we|three * we'll wait for|you|e- ven till e- ter- ni-|ty my|ech- o * my|
"C" AA- A4"Bb7" D2 |1"F" F4 _E4 ||"C7" =E4- E2 d2 :|2"F" F8- || F6 z2 |] %35
w: shad- ow * and|me *|* * we|me,||

